src/images/bg-input.svg

<svg width="272" height="42" viewBox="0 0 272 42" fill="none" xmlns="http://www.w3.org/2000/svg">
  <path d="M2.98529 5V3H4.97059V1H267.029V3H269.015V5H271V37H269.015V39H267.029V41H4.97059V39H2.98529V37H1V5H2.98529Z" fill="#FAFAFF" stroke="#060968" stroke-width="2"/>
</svg>

<svg width="272" height="42" fill="none" xmlns="http://www.w3.org/2000/svg">
  <path d="M2.985 5V3h1.986V1h262.058v2h1.986v2H271v32h-1.985v2h-1.986v2H4.971v-2H2.985v-2H1V5h1.985z" fill="#FAFAFF" stroke="#060968" stroke-width="2"/>
</svg>
